X: 75
T:Miss Nicholson's Hornpipe. BF13.074
M:4/4
L:1/8
Q:160
S:J.Lishman()MS,c1825,Lakes,Browne Coll.
R:Hornpipe
O:England
A:Lakes
N:Try Dotted. CGP.
Z:vmp.Chris Partington.
K:G
(BA)|GBdBg2(ba)|gfed cBAG|FAd^c dDEF|GBAG FDEF|!
GBdBg2ba|gfed cBAG|FGAB cedF|G2G2G2:|!
|:(AB)|BecA FGDF|GABcd2ef|(gf)(gf) gfe^d|Be^df efga|!
bgdB ceag|fedc BAGF|Eedc BAGF|G2G2G2:|]
